X: 27359
T: Misty Mountain, The
R: jig
M: 6/8
K: Dmajor
|:dAF GFE|DFA d2e|faf gab|agf e2c|
dad ceg|Bdg ecA|GBd cAF|GFE D3:|
a2a faf|g2e c2A|def fed|cAG AFD|
Ade =fed|BdB G2G|FGA dAG|FGE D3:|
f3 afd|Bgf edc|dAF GAB|FAd EAc|
d2e fed|Bgf e2e|faf gec|edc d3:|

